img/header/lock2.svg

<svg viewBox="0 0 448 512" xmlns="http://www.w3.org/2000/svg"><path d="m400 224h-24v-72c0-83.8-68.2-152-152-152s-152 68.2-152 152v72h-24a48 48 0 0 0 -48 48v192a48 48 0 0 0 48 48h352a48 48 0 0 0 48-48v-192a48 48 0 0 0 -48-48zm-104 0h-144v-72a72 72 0 0 1 144 0z" fill="#d0d0d0"/></svg>

<svg xmlns="http://www.w3.org/2000/svg" viewBox="0 0 448 512"><defs><style>.cls-1{fill:#d0d0d0;}</style></defs><title>Ресурс 1</title><g id="Слой_2" data-name="Слой 2"><g id="Слой_1-2" data-name="Слой 1"><path class="cls-1" d="M400,224H376V152C376,68.2,307.8,0,224,0S72,68.2,72,152v72H48A48,48,0,0,0,0,272V464a48,48,0,0,0,48,48H400a48,48,0,0,0,48-48V272A48,48,0,0,0,400,224Zm-104,0H152V152a72,72,0,0,1,144,0Z"/></g></g></svg>
